Newaita/actions/32/gnumeric-object-scrollbar.svg

<svg height="32" viewBox="0 0 32 32" width="32" xmlns="http://www.w3.org/2000/svg"><g fill="#424242"><path d="m15.878906 2.902344c-.296875 0-.582031.097656-.816406.28125l-9.261719 7.277344c-.375.289062-.566406.757812-.503906 1.226562.066406.46875.378906.867188.820313 1.042969.441406.175781.941406.097656 1.3125-.199219l8.414062-6.613281 7.78125 6.582031c.359375.3125.855469.40625 1.304688.25.449218-.160156.777343-.546875.859374-1.015625.082032-.464844-.09375-.941406-.460937-1.242187l-8.601563-7.277344c-.238281-.203125-.535156-.3125-.847656-.3125zm0 0"/><path d="m6.574219 19.429688c-.558594.011718-1.050781.375-1.226563.90625-.171875.53125.007813 1.117187.453125 1.457031l9.261719 7.277343c.492188.386719 1.1875.371094 1.664062-.03125l8.601563-7.277343c.367187-.300781.542969-.777344.460937-1.246094-.082031-.464844-.410156-.855469-.859374-1.011719-.449219-.160156-.945313-.0625-1.304688.25l-7.78125 6.582032-8.414062-6.613282c-.242188-.195312-.542969-.300781-.855469-.292968zm0 0"/><path d="m3.308594 15.464844h25.136718c.367188 0 .660157.296875.660157.660156 0 .367188-.292969.664062-.660157.664062h-25.136718c-.367188 0-.664063-.296874-.664063-.664062 0-.363281.296875-.660156.664063-.660156zm0 0"/></g></svg>

<svg xmlns="http://www.w3.org/2000/svg" xmlns:xlink="http://www.w3.org/1999/xlink" width="32px" height="32px" viewBox="0 0 32 32" version="1.1">
<g id="surface1">
     <defs>
  <style id="current-color-scheme" type="text/css">
   .ColorScheme-Text { color:#424242; } .ColorScheme-Highlight { color:#eeeeee; }
  </style>
 </defs>
<path style="fill:currentColor" class="ColorScheme-Text" d="M 15.878906 2.902344 C 15.582031 2.902344 15.296875 3 15.0625 3.183594 L 5.800781 10.460938 C 5.425781 10.75 5.234375 11.21875 5.296875 11.6875 C 5.363281 12.15625 5.675781 12.554688 6.117188 12.730469 C 6.558594 12.90625 7.058594 12.828125 7.429688 12.53125 L 15.84375 5.917969 L 23.625 12.5 C 23.984375 12.8125 24.480469 12.90625 24.929688 12.75 C 25.378906 12.589844 25.707031 12.203125 25.789062 11.734375 C 25.871094 11.269531 25.695312 10.792969 25.328125 10.492188 L 16.726562 3.214844 C 16.488281 3.011719 16.191406 2.902344 15.878906 2.902344 Z M 15.878906 2.902344 "/>
     <defs>
  <style id="current-color-scheme" type="text/css">
   .ColorScheme-Text { color:#424242; } .ColorScheme-Highlight { color:#eeeeee; }
  </style>
 </defs>
<path style="fill:currentColor" class="ColorScheme-Text" d="M 6.574219 19.429688 C 6.015625 19.441406 5.523438 19.804688 5.347656 20.335938 C 5.175781 20.867188 5.355469 21.453125 5.800781 21.792969 L 15.0625 29.070312 C 15.554688 29.457031 16.25 29.441406 16.726562 29.039062 L 25.328125 21.761719 C 25.695312 21.460938 25.871094 20.984375 25.789062 20.515625 C 25.707031 20.050781 25.378906 19.660156 24.929688 19.503906 C 24.480469 19.34375 23.984375 19.441406 23.625 19.753906 L 15.84375 26.335938 L 7.429688 19.722656 C 7.1875 19.527344 6.886719 19.421875 6.574219 19.429688 Z M 6.574219 19.429688 "/>
     <defs>
  <style id="current-color-scheme" type="text/css">
   .ColorScheme-Text { color:#424242; } .ColorScheme-Highlight { color:#eeeeee; }
  </style>
 </defs>
<path style="fill:currentColor" class="ColorScheme-Text" d="M 3.308594 15.464844 L 28.445312 15.464844 C 28.8125 15.464844 29.105469 15.761719 29.105469 16.125 C 29.105469 16.492188 28.8125 16.789062 28.445312 16.789062 L 3.308594 16.789062 C 2.941406 16.789062 2.644531 16.492188 2.644531 16.125 C 2.644531 15.761719 2.941406 15.464844 3.308594 15.464844 Z M 3.308594 15.464844 "/>
</g>
</svg>
